X:227
T:Stone Court, The
C:Joe Buchanan's Scottish Tome - Page 291.2-293.1
I:291 2
Z:Carl Allison
C:AKA Miss Hadden's Reel
R:Jig
L:1/8
M:6/8
K:D
A | d2 d edc/ | d2 A F2 A | d2 d edc | d3- d2 d | 
e2 A ABA | f2 A ABA | c2 e B2 e | A3 ABc | 
d2 d edc | d2 A F2 A | d2 d edc | d2- d2 f | 
g2Beg | f2 d A2 F | ABA GFE | D3 A3 | 
AFA d2 F | GFG E2 G | FAd f2 F | A3- A2 A || 
B2 B Bcd | A2 F d2 F | E2 A ^GAB | A3 A2 || 
AFA d2 F | GFG E2 G | F2 A d2 e | f3 f2 f || 
g2 e Beg | f2 A F2 | ABA ABc | d3 d2 |] 

